frontend/public/svg/health/heart-beat.svg

<svg width="159" height="145" viewBox="0 0 159 145" fill="none" xmlns="http://www.w3.org/2000/svg">
<g clip-path="url(#clip0)">
<path d="M7.53812 84.1961C3.38461 77.0046 0.897177 68.973 0.258796 60.6932C-1.25078 40.8061 4.93316 23.9507 20.7588 11.2709C27.8496 5.59958 36.6751 2.53957 45.7548 2.60408C50.4632 2.54527 55.1674 2.91269 59.8096 3.70204C68.1042 5.16501 75.8614 8.02986 81.7311 14.6707C84.8723 12.6813 87.8665 10.7361 90.9093 8.86944C97.8284 4.61886 105.638 2.03071 113.726 1.30839C125.181 0.23856 134.86 4.46995 143.187 12.0566C154.904 22.7325 158.691 36.3136 157.502 51.6948C156.811 59.8731 154.632 67.8566 151.074 75.2522C150.746 75.9512 150.488 76.6836 150.14 77.5434C150.949 77.9261 151.73 78.3685 152.474 78.866C154.246 80.2443 154.073 82.0912 152.049 83.1407C151.255 83.5621 150.387 83.8266 149.493 83.9198C146.766 84.1488 145.194 85.7201 143.683 87.8926C134.404 101.164 123.407 113.148 110.98 123.532C104.456 129.019 97.6637 134.193 90.887 139.368C88.5937 140.98 86.2007 142.443 83.7224 143.752C82.5725 144.481 81.2441 144.881 79.8822 144.907C78.5203 144.933 77.1774 144.583 76.0006 143.897C73.1941 142.289 70.572 140.357 67.8909 138.534C64.6455 136.327 61.4977 133.967 58.1773 131.882C43.4563 122.637 29.9108 111.974 18.3081 98.9709C16.0693 96.4617 14.0175 93.7753 12.0314 91.0594C11.6946 90.4877 11.2053 90.0217 10.6184 89.7126C10.0315 89.4035 9.37009 89.2637 8.70837 89.3096C7.02525 89.3096 5.34455 89.1836 3.68021 88.9329C2.32094 88.7727 1.24387 88.0462 1.29506 86.5838C1.35019 84.9988 2.43914 84.2335 4.00582 84.2013C5.00148 84.1797 6.00229 84.1961 7.53812 84.1961ZM72.6592 79.0767C75.7932 76.9107 79.1983 76.7926 82.734 77.231C85.5109 77.6307 88.3102 77.8591 91.1147 77.9136C106.608 77.9071 122.1 77.764 137.593 77.7561C139.665 77.7561 140.809 76.9429 141.806 75.1964C147.676 64.9232 150.82 53.9906 150.218 42.084C149.474 27.382 142.276 16.9404 129.234 10.421C124.97 8.32711 120.207 7.46337 115.479 7.92688C108.852 8.42038 102.4 10.2903 96.5348 13.4171C92.8855 15.3862 89.3695 17.6046 85.7813 19.6898C82.39 21.6588 80.1532 21.4193 77.371 18.6706C74.6413 15.8119 71.21 13.7175 67.4196 12.5961C63.2107 11.4553 58.9531 10.2299 54.6403 9.78228C41.4328 8.41119 29.5905 11.605 20.4234 21.752C6.0496 37.6649 3.55552 60.9136 13.0941 79.5453C13.7432 80.814 14.5525 82.0006 15.2134 83.1013C20.8474 82.441 21.7222 81.8917 24.6292 77.7587C25.9059 75.7818 27.3441 73.9139 28.9289 72.1746C31.5582 69.5145 34.5387 70.0087 36.4329 73.2635C37.2037 74.7816 37.8952 76.3391 38.5049 77.9294C39.0398 76.385 39.4237 75.3815 39.7368 74.3569C40.6603 71.3581 41.3311 68.253 42.5388 65.3781C43.442 63.1034 44.762 61.0173 46.4308 59.227C49.1493 56.4704 52.4749 57.1962 53.9747 60.7503C54.9186 63.0246 55.5574 65.4139 55.8748 67.8559C56.7024 74.0813 57.2677 80.3414 57.9693 86.5838C58.1401 87.5382 58.3622 88.4826 58.6347 89.4127C59.5943 86.3233 60.1916 83.6861 61.247 81.2472C62.0147 79.5151 63.1102 77.9478 64.4729 76.6311C66.4076 74.7639 68.4993 74.9279 70.4709 76.7178C71.2067 77.3885 71.8328 78.1775 72.6592 79.0767ZM50.2257 64.4232L49.2045 64.3109C48.7175 65.659 48.1662 66.9889 47.7553 68.36C46.5976 72.2245 45.5991 76.1402 44.3331 79.968C43.6937 81.9974 42.7829 83.9309 41.6257 85.7168C40.0636 88.0357 37.3596 88.0206 35.7089 85.7562C34.8669 84.4416 34.2047 83.0206 33.7399 81.53C33.2943 80.3342 33.0718 79.0543 32.6458 77.4063C30.5862 80.0539 29.127 82.7121 26.9539 84.5072C24.7132 86.3587 21.7787 87.3701 18.7832 88.9401C21.5582 92.1516 24.2965 95.7004 27.418 98.862C37.7404 109.359 49.399 118.453 62.0936 125.91C66.4358 128.456 70.572 131.354 74.915 133.9C77.2037 135.241 79.7949 135.786 82.2397 134.151C85.2202 132.157 88.1435 130.073 91.0347 127.955C104.581 118.115 116.963 106.767 127.944 94.1284C130.481 91.1894 132.878 88.1295 135.645 84.752C134.95 84.5951 134.248 84.4763 133.54 84.3963C115.83 83.8056 98.0581 84.7454 80.4236 82.1903C79.2101 82.1194 77.9991 82.3629 76.907 82.8979C75.3141 83.5726 73.71 85.3676 72.3546 85.1517C70.8241 84.9082 69.5639 82.9661 67.9946 81.5957C67.5141 82.9851 66.8959 84.4179 66.5296 85.9111C65.8365 88.7419 65.4061 91.6396 64.6389 94.4474C64.1677 96.4046 63.4161 98.2837 62.4074 100.026C60.548 102.992 56.9854 102.817 55.3944 99.7224C54.3593 97.8584 53.6348 95.8375 53.2494 93.7405C52.4021 87.8696 51.8383 81.9567 51.2318 76.0529C50.8334 72.1812 50.5565 68.2996 50.2257 64.4232Z" fill="black"/>
</g>
<defs>
<clipPath id="clip0">
<rect width="158.177" height="144.394" fill="white" transform="translate(0.0294189 0.543457)"/>
</clipPath>
</defs>
</svg>

<svg xmlns="http://www.w3.org/2000/svg" width="159" height="145" fill="none" viewBox="0 0 159 145"><g clip-path="url(#a)"><path fill="#000" d="M7.538 84.196a55.5 55.5 0 0 1-7.28-23.503c-1.509-19.887 4.675-36.742 20.5-49.422a39.57 39.57 0 0 1 24.997-8.667A78 78 0 0 1 59.81 3.702c8.294 1.463 16.05 4.328 21.92 10.969 3.141-1.99 6.136-3.935 9.178-5.802a52.5 52.5 0 0 1 22.817-7.56c11.455-1.07 21.134 3.16 29.461 10.748 11.717 10.676 15.504 24.257 14.315 39.638a67.4 67.4 0 0 1-6.428 23.557c-.328.7-.586 1.432-.934 2.291.809.383 1.59.825 2.334 1.323 1.772 1.378 1.599 3.225-.425 4.275a7 7 0 0 1-2.556.779c-2.727.229-4.299 1.8-5.81 3.973a183.4 183.4 0 0 1-32.703 35.639c-6.524 5.487-13.316 10.661-20.093 15.836a66 66 0 0 1-7.165 4.384 7.43 7.43 0 0 1-7.722.145c-2.806-1.608-5.428-3.54-8.11-5.363-3.245-2.207-6.392-4.567-9.713-6.652-14.72-9.245-28.266-19.908-39.869-32.911-2.239-2.51-4.29-5.196-6.277-7.912a3.57 3.57 0 0 0-3.323-1.75c-1.683 0-3.363-.125-5.028-.376-1.36-.16-2.436-.887-2.385-2.35.055-1.584 1.144-2.35 2.71-2.382.996-.021 1.997-.005 3.533-.005m65.121-5.12c3.134-2.165 6.54-2.283 10.075-1.845 2.777.4 5.576.628 8.38.683 15.494-.007 30.986-.15 46.479-.158 2.072 0 3.216-.813 4.213-2.56 5.87-10.273 9.014-21.205 8.412-33.112-.744-14.702-7.942-25.144-20.984-31.663a25.55 25.55 0 0 0-13.755-2.494 47.8 47.8 0 0 0-18.944 5.49c-3.65 1.97-7.165 4.188-10.754 6.273-3.391 1.969-5.628 1.73-8.41-1.02a22.64 22.64 0 0 0-9.951-6.074c-4.21-1.14-8.467-2.366-12.78-2.814-13.207-1.37-25.05 1.823-34.217 11.97C6.05 37.665 3.556 60.914 13.094 79.545c.65 1.269 1.459 2.456 2.12 3.556 5.633-.66 6.508-1.21 9.415-5.342a42.6 42.6 0 0 1 4.3-5.584c2.63-2.66 5.61-2.166 7.504 1.088a49 49 0 0 1 2.072 4.666c.535-1.544.919-2.547 1.232-3.572.923-2.999 1.594-6.104 2.802-8.979a19.7 19.7 0 0 1 3.892-6.151c2.718-2.757 6.044-2.03 7.544 1.523a28 28 0 0 1 1.9 7.106c.827 6.225 1.393 12.485 2.094 18.728q.256 1.432.666 2.829c.96-3.09 1.557-5.727 2.612-8.166a14.7 14.7 0 0 1 3.226-4.616c1.935-1.867 4.026-1.703 5.998.087.736.67 1.362 1.46 2.188 2.359M50.226 64.424l-1.021-.112c-.487 1.348-1.039 2.678-1.45 4.049-1.157 3.865-2.156 7.78-3.422 11.608a23.6 23.6 0 0 1-2.707 5.749c-1.562 2.319-4.266 2.304-5.917.04a17.5 17.5 0 0 1-1.97-4.227c-.445-1.196-.667-2.476-1.093-4.124-2.06 2.648-3.519 5.306-5.692 7.101-2.24 1.852-5.175 2.863-8.17 4.433 2.774 3.212 5.513 6.76 8.634 9.922a168 168 0 0 0 34.676 27.048c4.342 2.546 8.478 5.444 12.821 7.99 2.289 1.341 4.88 1.886 7.325.251 2.98-1.994 5.904-4.078 8.795-6.196a220.8 220.8 0 0 0 36.909-33.827c2.537-2.939 4.934-5.999 7.701-9.376a20 20 0 0 0-2.105-.356c-17.71-.59-35.482.35-53.116-2.206a7.06 7.06 0 0 0-3.517.708c-1.593.675-3.197 2.47-4.552 2.254-1.53-.244-2.791-2.186-4.36-3.556-.48 1.39-1.1 2.822-1.465 4.315-.694 2.83-1.124 5.729-1.891 8.536a20.9 20.9 0 0 1-2.232 5.579c-1.859 2.966-5.422 2.791-7.013-.304a19.6 19.6 0 0 1-2.145-5.981c-.847-5.871-1.41-11.784-2.017-17.688-.399-3.872-.675-7.753-1.006-11.63"/></g><defs><clipPath id="a"><path fill="#fff" d="M.03.543h158.176v144.394H.03z"/></clipPath></defs></svg>
